svg/color/ctg.svg

<?xml version="1.0" encoding="UTF-8" ?>
<!DOCTYPE svg PUBLIC "-//W3C//DTD SVG 1.1//EN" "http://www.w3.org/Graphics/SVG/1.1/DTD/svg11.dtd">
<svg width="250pt" height="250pt" viewBox="0 0 250 250" version="1.1" xmlns="http://www.w3.org/2000/svg">
<g id="#fefefeff">
<path fill="#fefefe" opacity="1.00" d=" M 0.00 0.00 L 250.00 0.00 L 250.00 250.00 L 0.00 250.00 L 0.00 0.00 M 61.51 11.37 C 57.55 16.72 52.53 21.19 48.65 26.59 C 47.99 31.39 48.79 36.25 49.36 41.02 C 49.80 45.15 49.32 49.41 50.56 53.43 C 51.86 54.72 53.45 55.66 54.93 56.72 C 72.70 47.98 90.36 39.03 108.11 30.24 C 111.94 28.41 115.72 26.46 119.39 24.33 C 119.36 22.82 119.35 21.30 119.34 19.79 C 115.28 16.93 111.60 13.10 106.89 11.41 C 91.77 11.20 76.64 11.33 61.51 11.37 M 115.79 11.64 C 117.73 12.91 119.72 14.10 121.74 15.23 C 122.20 13.93 122.65 12.62 123.10 11.32 C 120.66 11.32 118.22 11.37 115.79 11.64 M 126.84 11.42 C 127.57 12.71 128.31 14.00 129.05 15.29 C 130.98 14.08 132.89 12.85 134.73 11.51 C 132.10 11.34 129.47 11.32 126.84 11.42 M 142.51 11.67 C 138.43 13.70 134.98 16.77 131.30 19.41 C 131.25 21.17 131.23 22.92 131.24 24.68 C 149.41 33.93 167.74 42.90 185.95 52.09 C 188.67 53.49 191.36 55.00 194.24 56.05 C 196.49 57.25 198.87 54.87 199.97 53.06 C 201.43 46.47 201.16 39.65 202.16 32.99 C 202.44 30.33 203.13 27.17 200.89 25.14 C 196.77 20.62 193.17 15.56 188.53 11.55 C 178.72 10.87 168.84 11.50 159.00 11.29 C 153.51 11.51 147.93 10.75 142.51 11.67 M 113.44 32.36 C 94.76 42.12 75.58 50.92 57.01 60.90 C 57.95 66.30 63.40 68.12 67.55 70.54 C 81.58 78.50 95.54 86.57 109.56 94.55 C 113.36 96.63 116.92 99.22 121.01 100.76 C 123.33 99.92 123.14 97.07 123.33 95.05 C 123.35 76.03 123.29 57.00 123.35 37.98 C 123.40 34.95 122.96 31.96 122.44 28.98 C 119.28 29.61 116.28 30.83 113.44 32.36 M 129.23 29.12 C 127.97 29.58 127.13 30.61 127.41 32.00 C 127.34 53.02 127.44 74.05 127.36 95.08 C 127.29 97.22 127.90 99.28 128.70 101.24 C 135.22 98.12 141.35 94.25 147.65 90.70 C 161.24 83.00 174.74 75.15 188.36 67.50 C 189.70 66.69 191.04 65.87 192.21 64.81 C 192.52 63.29 192.62 61.74 192.77 60.20 C 175.34 51.71 158.07 42.88 140.69 34.27 C 136.92 32.47 133.35 30.05 129.23 29.12 M 32.15 45.11 C 27.89 50.15 23.30 54.92 19.31 60.18 C 26.16 60.26 33.04 60.57 39.87 60.10 C 42.17 58.75 44.01 56.68 45.47 54.47 C 46.01 46.91 44.32 39.42 44.16 31.88 C 39.75 35.91 36.12 40.67 32.15 45.11 M 204.59 51.06 C 204.36 55.65 208.39 60.01 212.94 60.31 C 218.83 60.79 224.75 60.45 230.63 60.08 C 228.40 56.49 225.74 53.20 222.87 50.11 C 217.37 44.19 212.58 37.62 206.56 32.19 C 205.53 38.43 204.65 44.73 204.59 51.06 M 8.02 73.04 C 21.93 93.23 36.07 113.30 50.37 133.22 C 50.73 125.13 49.32 117.11 49.35 109.03 C 48.57 95.91 47.87 82.78 47.14 69.67 C 44.96 66.93 41.83 64.11 38.08 64.52 C 30.46 64.73 22.80 64.18 15.21 64.81 C 12.47 67.23 10.28 70.18 8.02 73.04 M 205.31 67.31 C 201.57 71.22 202.82 77.13 202.41 82.03 C 201.35 98.85 200.35 115.68 199.83 132.52 C 202.51 129.92 204.90 127.04 206.97 123.93 C 218.66 106.87 231.09 90.30 242.44 73.01 C 240.17 70.14 238.25 66.58 234.78 64.99 C 229.26 63.93 223.59 64.74 218.01 64.47 C 213.72 64.58 208.55 63.80 205.31 67.31 M 55.86 69.59 C 56.60 72.44 57.72 75.18 59.11 77.78 C 80.29 118.83 100.95 160.15 122.30 201.10 C 123.84 195.18 123.26 189.04 123.33 183.00 C 123.30 159.64 123.37 136.28 123.30 112.92 C 123.55 109.06 121.31 105.66 117.81 104.15 C 102.24 95.43 86.83 86.43 71.30 77.63 C 66.22 74.84 61.42 71.40 55.86 69.59 M 187.59 72.70 C 169.31 83.40 150.85 93.80 132.46 104.32 C 130.62 105.42 128.67 106.66 127.74 108.68 C 127.19 111.07 127.40 113.54 127.36 115.97 C 127.59 144.53 127.06 173.11 127.63 201.66 C 130.90 196.71 133.35 191.29 136.04 186.02 C 153.52 151.82 170.98 117.61 188.44 83.40 C 190.72 78.91 193.36 74.54 194.69 69.63 C 192.23 70.43 189.82 71.40 187.59 72.70 M 51.50 73.63 C 52.86 82.04 51.97 90.60 53.29 99.01 C 53.79 104.67 53.22 110.39 54.08 116.02 C 55.11 124.15 53.96 132.47 55.75 140.52 C 57.05 143.31 59.12 145.64 60.83 148.18 C 72.14 164.23 83.46 180.27 94.70 196.37 C 95.53 197.53 96.47 198.70 97.86 199.20 C 104.15 201.78 110.58 204.01 116.94 206.39 C 117.45 206.02 118.46 205.28 118.96 204.91 C 99.13 165.24 78.62 125.92 58.63 86.33 C 56.43 82.00 54.34 77.59 51.50 73.63 M 192.35 84.51 C 185.53 98.83 178.02 112.80 170.79 126.90 C 159.89 148.90 148.35 170.57 137.40 192.53 C 135.28 197.04 131.69 201.36 132.46 206.65 C 138.84 205.08 144.97 202.63 151.05 200.14 C 153.34 199.26 155.18 197.55 156.58 195.56 C 166.82 180.84 177.22 166.22 187.50 151.53 C 190.35 147.22 194.45 143.33 195.24 138.00 C 196.83 127.41 196.04 116.66 197.29 106.04 C 197.68 95.67 199.42 85.30 198.30 74.93 C 195.95 77.88 193.94 81.09 192.35 84.51 M 101.83 205.83 C 103.85 209.56 106.36 213.00 108.96 216.35 C 111.17 215.41 113.40 214.49 115.61 213.55 C 115.57 212.59 115.53 211.63 115.49 210.68 C 110.94 209.05 106.51 207.06 101.83 205.83 M 133.81 212.91 C 136.20 214.26 138.64 215.54 141.09 216.80 C 144.17 213.65 146.70 210.00 148.40 205.93 C 143.10 207.07 137.26 208.31 133.81 212.91 M 111.74 220.08 C 115.02 225.47 118.78 230.54 122.48 235.65 C 122.82 229.84 122.67 224.02 122.62 218.20 C 118.82 216.44 115.17 218.54 111.74 220.08 M 127.42 218.61 C 127.52 224.38 127.28 230.15 127.62 235.92 C 131.65 230.85 135.23 225.46 138.91 220.14 C 135.25 218.52 131.33 216.23 127.42 218.61 Z" />
</g>
<g id="#15945eff">
<path fill="#15945e" opacity="1.00" d=" M 61.51 11.37 C 76.64 11.33 91.77 11.20 106.89 11.41 C 111.60 13.10 115.28 16.93 119.34 19.79 C 119.35 21.30 119.36 22.82 119.39 24.33 C 115.72 26.46 111.94 28.41 108.11 30.24 C 90.36 39.03 72.70 47.98 54.93 56.72 C 53.45 55.66 51.86 54.72 50.56 53.43 C 49.32 49.41 49.80 45.15 49.36 41.02 C 48.79 36.25 47.99 31.39 48.65 26.59 C 52.53 21.19 57.55 16.72 61.51 11.37 Z" />
<path fill="#15945e" opacity="1.00" d=" M 115.79 11.64 C 118.22 11.37 120.66 11.32 123.10 11.32 C 122.65 12.62 122.20 13.93 121.74 15.23 C 119.72 14.10 117.73 12.91 115.79 11.64 Z" />
<path fill="#15945e" opacity="1.00" d=" M 126.84 11.42 C 129.47 11.32 132.10 11.34 134.73 11.51 C 132.89 12.85 130.98 14.08 129.05 15.29 C 128.31 14.00 127.57 12.71 126.84 11.42 Z" />
<path fill="#15945e" opacity="1.00" d=" M 32.15 45.11 C 36.12 40.67 39.75 35.91 44.16 31.88 C 44.32 39.42 46.01 46.91 45.47 54.47 C 44.01 56.68 42.17 58.75 39.87 60.10 C 33.04 60.57 26.16 60.26 19.31 60.18 C 23.30 54.92 27.89 50.15 32.15 45.11 Z" />
<path fill="#15945e" opacity="1.00" d=" M 8.02 73.04 C 10.28 70.18 12.47 67.23 15.21 64.81 C 22.80 64.18 30.46 64.73 38.08 64.52 C 41.83 64.11 44.96 66.93 47.14 69.67 C 47.87 82.78 48.57 95.91 49.35 109.03 C 49.32 117.11 50.73 125.13 50.37 133.22 C 36.07 113.30 21.93 93.23 8.02 73.04 Z" />
<path fill="#15945e" opacity="1.00" d=" M 51.50 73.63 C 54.34 77.59 56.43 82.00 58.63 86.33 C 78.62 125.92 99.13 165.24 118.96 204.91 C 118.46 205.28 117.45 206.02 116.94 206.39 C 110.58 204.01 104.15 201.78 97.86 199.20 C 96.47 198.70 95.53 197.53 94.70 196.37 C 83.46 180.27 72.14 164.23 60.83 148.18 C 59.12 145.64 57.05 143.31 55.75 140.52 C 53.96 132.47 55.11 124.15 54.08 116.02 C 53.22 110.39 53.79 104.67 53.29 99.01 C 51.97 90.60 52.86 82.04 51.50 73.63 Z" />
<path fill="#15945e" opacity="1.00" d=" M 101.83 205.83 C 106.51 207.06 110.94 209.05 115.49 210.68 C 115.53 211.63 115.57 212.59 115.61 213.55 C 113.40 214.49 111.17 215.41 108.96 216.35 C 106.36 213.00 103.85 209.56 101.83 205.83 Z" />
<path fill="#15945e" opacity="1.00" d=" M 111.74 220.08 C 115.17 218.54 118.82 216.44 122.62 218.20 C 122.67 224.02 122.82 229.84 122.48 235.65 C 118.78 230.54 115.02 225.47 111.74 220.08 Z" />
<path fill="#15945e" opacity="1.00" d=" M 127.42 218.61 C 131.33 216.23 135.25 218.52 138.91 220.14 C 135.23 225.46 131.65 230.85 127.62 235.92 C 127.28 230.15 127.52 224.38 127.42 218.61 Z" />
</g>
<g id="#45b492ff">
<path fill="#45b492" opacity="1.00" d=" M 142.51 11.67 C 147.93 10.75 153.51 11.51 159.00 11.29 C 168.84 11.50 178.72 10.87 188.53 11.55 C 193.17 15.56 196.77 20.62 200.89 25.14 C 203.13 27.17 202.44 30.33 202.16 32.99 C 201.16 39.65 201.43 46.47 199.97 53.06 C 198.87 54.87 196.49 57.25 194.24 56.05 C 191.36 55.00 188.67 53.49 185.95 52.09 C 167.74 42.90 149.41 33.93 131.24 24.68 C 131.23 22.92 131.25 21.17 131.30 19.41 C 134.98 16.77 138.43 13.70 142.51 11.67 Z" />
<path fill="#45b492" opacity="1.00" d=" M 113.44 32.36 C 116.28 30.83 119.28 29.61 122.44 28.98 C 122.96 31.96 123.40 34.95 123.35 37.98 C 123.29 57.00 123.35 76.03 123.33 95.05 C 123.14 97.07 123.33 99.92 121.01 100.76 C 116.92 99.22 113.36 96.63 109.56 94.55 C 95.54 86.57 81.58 78.50 67.55 70.54 C 63.40 68.12 57.95 66.30 57.01 60.90 C 75.58 50.92 94.76 42.12 113.44 32.36 Z" />
<path fill="#45b492" opacity="1.00" d=" M 129.23 29.12 C 133.35 30.05 136.92 32.47 140.69 34.27 C 158.07 42.88 175.34 51.71 192.77 60.20 C 192.62 61.74 192.52 63.29 192.21 64.81 C 191.04 65.87 189.70 66.69 188.36 67.50 C 174.74 75.15 161.24 83.00 147.65 90.70 C 141.35 94.25 135.22 98.12 128.70 101.24 C 127.90 99.28 127.29 97.22 127.36 95.08 C 127.44 74.05 127.34 53.02 127.41 32.00 C 127.13 30.61 127.97 29.58 129.23 29.12 Z" />
<path fill="#45b492" opacity="1.00" d=" M 55.86 69.59 C 61.42 71.40 66.22 74.84 71.30 77.63 C 86.83 86.43 102.24 95.43 117.81 104.15 C 121.31 105.66 123.55 109.06 123.30 112.92 C 123.37 136.28 123.30 159.64 123.33 183.00 C 123.26 189.04 123.84 195.18 122.30 201.10 C 100.95 160.15 80.29 118.83 59.11 77.78 C 57.72 75.18 56.60 72.44 55.86 69.59 Z" />
<path fill="#45b492" opacity="1.00" d=" M 187.59 72.70 C 189.82 71.40 192.23 70.43 194.69 69.63 C 193.36 74.54 190.72 78.91 188.44 83.40 C 170.98 117.61 153.52 151.82 136.04 186.02 C 133.35 191.29 130.90 196.71 127.63 201.66 C 127.06 173.11 127.59 144.53 127.36 115.97 C 127.40 113.54 127.19 111.07 127.74 108.68 C 128.67 106.66 130.62 105.42 132.46 104.32 C 150.85 93.80 169.31 83.40 187.59 72.70 Z" />
</g>
<g id="#b9ddc6ff">
<path fill="#b9ddc6" opacity="1.00" d=" M 204.59 51.06 C 204.65 44.73 205.53 38.43 206.56 32.19 C 212.58 37.62 217.37 44.19 222.87 50.11 C 225.74 53.20 228.40 56.49 230.63 60.08 C 224.75 60.45 218.83 60.79 212.94 60.31 C 208.39 60.01 204.36 55.65 204.59 51.06 Z" />
<path fill="#b9ddc6" opacity="1.00" d=" M 205.31 67.31 C 208.55 63.80 213.72 64.58 218.01 64.47 C 223.59 64.74 229.26 63.93 234.78 64.99 C 238.25 66.58 240.17 70.14 242.44 73.01 C 231.09 90.30 218.66 106.87 206.97 123.93 C 204.90 127.04 202.51 129.92 199.83 132.52 C 200.35 115.68 201.35 98.85 202.41 82.03 C 202.82 77.13 201.57 71.22 205.31 67.31 Z" />
<path fill="#b9ddc6" opacity="1.00" d=" M 192.35 84.51 C 193.94 81.09 195.95 77.88 198.30 74.93 C 199.42 85.30 197.68 95.67 197.29 106.04 C 196.04 116.66 196.83 127.41 195.24 138.00 C 194.45 143.33 190.35 147.22 187.50 151.53 C 177.22 166.22 166.82 180.84 156.58 195.56 C 155.18 197.55 153.34 199.26 151.05 200.14 C 144.97 202.63 138.84 205.08 132.46 206.65 C 131.69 201.36 135.28 197.04 137.40 192.53 C 148.35 170.57 159.89 148.90 170.79 126.90 C 178.02 112.80 185.53 98.83 192.35 84.51 Z" />
<path fill="#b9ddc6" opacity="1.00" d=" M 133.81 212.91 C 137.26 208.31 143.10 207.07 148.40 205.93 C 146.70 210.00 144.17 213.65 141.09 216.80 C 138.64 215.54 136.20 214.26 133.81 212.91 Z" />
</g>
</svg>

<?xml version="1.0" encoding="utf-8"?>
<!-- Generator: Adobe Illustrator 26.0.3, SVG Export Plug-In . SVG Version: 6.00 Build 0)  -->
<svg version="1.1" id="Layer_1" xmlns="http://www.w3.org/2000/svg" xmlns:xlink="http://www.w3.org/1999/xlink" x="0px" y="0px"
	 viewBox="0 0 250 250" style="enable-background:new 0 0 250 250;" xml:space="preserve">
<style type="text/css">
	.st0{fill:#15945E;}
	.st1{fill:#45B492;}
	.st2{fill:#B9DDC6;}
</style>
<g id="_x23_15945eff">
	<path class="st0" d="M61.5,11.4c15.1,0,30.3-0.2,45.4,0c4.7,1.7,8.4,5.5,12.4,8.4c0,1.5,0,3,0.1,4.5c-3.7,2.1-7.4,4.1-11.3,5.9
		C90.4,39,72.7,48,54.9,56.7c-1.5-1.1-3.1-2-4.4-3.3c-1.2-4-0.8-8.3-1.2-12.4c-0.6-4.8-1.4-9.6-0.7-14.4
		C52.5,21.2,57.5,16.7,61.5,11.4z"/>
	<path class="st0" d="M115.8,11.6c2.4-0.3,4.9-0.3,7.3-0.3c-0.4,1.3-0.9,2.6-1.4,3.9C119.7,14.1,117.7,12.9,115.8,11.6z"/>
	<path class="st0" d="M126.8,11.4c2.6-0.1,5.3-0.1,7.9,0.1c-1.8,1.3-3.8,2.6-5.7,3.8C128.3,14,127.6,12.7,126.8,11.4z"/>
	<path class="st0" d="M32.2,45.1c4-4.4,7.6-9.2,12-13.2c0.2,7.5,1.8,15,1.3,22.6c-1.5,2.2-3.3,4.3-5.6,5.6
		c-6.8,0.5-13.7,0.2-20.6,0.1C23.3,54.9,27.9,50.2,32.2,45.1z"/>
	<path class="st0" d="M8,73c2.3-2.9,4.4-5.8,7.2-8.2c7.6-0.6,15.2-0.1,22.9-0.3c3.8-0.4,6.9,2.4,9.1,5.2c0.7,13.1,1.4,26.2,2.2,39.4
		c0,8.1,1.4,16.1,1,24.2C36.1,113.3,21.9,93.2,8,73z"/>
	<path class="st0" d="M51.5,73.6c2.8,4,4.9,8.4,7.1,12.7c20,39.6,40.5,78.9,60.3,118.6c-0.5,0.4-1.5,1.1-2,1.5
		c-6.4-2.4-12.8-4.6-19.1-7.2c-1.4-0.5-2.3-1.7-3.2-2.8c-11.2-16.1-22.6-32.1-33.9-48.2c-1.7-2.5-3.8-4.9-5.1-7.7
		c-1.8-8.1-0.6-16.4-1.7-24.5c-0.9-5.6-0.3-11.3-0.8-17C52,90.6,52.9,82,51.5,73.6z"/>
	<path class="st0" d="M101.8,205.8c4.7,1.2,9.1,3.2,13.7,4.8c0,1,0.1,1.9,0.1,2.9c-2.2,0.9-4.4,1.9-6.7,2.8
		C106.4,213,103.8,209.6,101.8,205.8z"/>
	<path class="st0" d="M111.7,220.1c3.4-1.5,7.1-3.6,10.9-1.9c0,5.8,0.2,11.6-0.1,17.4C118.8,230.5,115,225.5,111.7,220.1z"/>
	<path class="st0" d="M127.4,218.6c3.9-2.4,7.8-0.1,11.5,1.5c-3.7,5.3-7.3,10.7-11.3,15.8C127.3,230.1,127.5,224.4,127.4,218.6z"/>
</g>
<g id="_x23_45b492ff">
	<path class="st1" d="M142.5,11.7c5.4-0.9,11-0.2,16.5-0.4c9.8,0.2,19.7-0.4,29.5,0.3c4.6,4,8.2,9.1,12.4,13.6
		c2.2,2,1.6,5.2,1.3,7.9c-1,6.7-0.7,13.5-2.2,20.1c-1.1,1.8-3.5,4.2-5.7,3c-2.9-1-5.6-2.6-8.3-4c-18.2-9.2-36.5-18.2-54.7-27.4
		c0-1.8,0-3.5,0.1-5.3C135,16.8,138.4,13.7,142.5,11.7z"/>
	<path class="st1" d="M113.4,32.4c2.8-1.5,5.8-2.8,9-3.4c0.5,3,1,6,0.9,9c-0.1,19,0,38,0,57.1c-0.2,2,0,4.9-2.3,5.7
		c-4.1-1.5-7.7-4.1-11.5-6.2c-14-8-28-16.1-42-24c-4.2-2.4-9.6-4.2-10.5-9.6C75.6,50.9,94.8,42.1,113.4,32.4z"/>
	<path class="st1" d="M129.2,29.1c4.1,0.9,7.7,3.4,11.5,5.1c17.4,8.6,34.6,17.4,52.1,25.9c-0.2,1.5-0.2,3.1-0.6,4.6
		c-1.2,1.1-2.5,1.9-3.9,2.7c-13.6,7.7-27.1,15.5-40.7,23.2c-6.3,3.6-12.4,7.4-18.9,10.5c-0.8-2-1.4-4-1.3-6.2
		c0.1-21,0-42.1,0.1-63.1C127.1,30.6,128,29.6,129.2,29.1z"/>
	<path class="st1" d="M55.9,69.6c5.6,1.8,10.4,5.2,15.4,8c15.5,8.8,30.9,17.8,46.5,26.5c3.5,1.5,5.7,4.9,5.5,8.8
		c0.1,23.4,0,46.7,0,70.1c-0.1,6,0.5,12.2-1,18.1c-21.4-41-42-82.3-63.2-123.3C57.7,75.2,56.6,72.4,55.9,69.6z"/>
	<path class="st1" d="M187.6,72.7c2.2-1.3,4.6-2.3,7.1-3.1c-1.3,4.9-4,9.3-6.2,13.8C171,117.6,153.5,151.8,136,186
		c-2.7,5.3-5.1,10.7-8.4,15.6c-0.6-28.6,0-57.1-0.3-85.7c0-2.4-0.2-4.9,0.4-7.3c0.9-2,2.9-3.3,4.7-4.4
		C150.9,93.8,169.3,83.4,187.6,72.7z"/>
</g>
<g id="_x23_b9ddc6ff">
	<path class="st2" d="M204.6,51.1c0.1-6.3,0.9-12.6,2-18.9c6,5.4,10.8,12,16.3,17.9c2.9,3.1,5.5,6.4,7.8,10
		c-5.9,0.4-11.8,0.7-17.7,0.2C208.4,60,204.4,55.7,204.6,51.1z"/>
	<path class="st2" d="M205.3,67.3c3.2-3.5,8.4-2.7,12.7-2.8c5.6,0.3,11.2-0.5,16.8,0.5c3.5,1.6,5.4,5.2,7.7,8
		c-11.4,17.3-23.8,33.9-35.5,50.9c-2.1,3.1-4.5,6-7.1,8.6c0.5-16.8,1.5-33.7,2.6-50.5C202.8,77.1,201.6,71.2,205.3,67.3z"/>
	<path class="st2" d="M192.4,84.5c1.6-3.4,3.6-6.6,5.9-9.6c1.1,10.4-0.6,20.7-1,31.1c-1.2,10.6-0.5,21.4-2,32
		c-0.8,5.3-4.9,9.2-7.7,13.5c-10.3,14.7-20.7,29.3-30.9,44c-1.4,2-3.2,3.7-5.5,4.6c-6.1,2.5-12.2,4.9-18.6,6.5
		c-0.8-5.3,2.8-9.6,4.9-14.1c11-22,22.5-43.6,33.4-65.6C178,112.8,185.5,98.8,192.4,84.5z"/>
	<path class="st2" d="M133.8,212.9c3.4-4.6,9.3-5.8,14.6-7c-1.7,4.1-4.2,7.7-7.3,10.9C138.6,215.5,136.2,214.3,133.8,212.9z"/>
</g>
</svg>
